svg/fluentui-system-icons/ic_fluent_people_checkmark_16_filled.svg

<svg width="16" height="16" viewBox="0 0 16 16" fill="none" xmlns="http://www.w3.org/2000/svg">
<path d="M8 4.5C8 5.88071 6.88071 7 5.5 7C4.11929 7 3 5.88071 3 4.5C3 3.11929 4.11929 2 5.5 2C6.88071 2 8 3.11929 8 4.5ZM11.5 6C10.9517 6 10.4222 6.08022 9.9225 6.22957C9.65775 5.89039 9.5 5.46362 9.5 5C9.5 3.89543 10.3954 3 11.5 3C12.6046 3 13.5 3.89543 13.5 5C13.5 5.46362 13.3423 5.89039 13.0775 6.22957C12.5778 6.08022 12.0483 6 11.5 6ZM3 8H7.25716C6.47182 8.95094 6 10.1704 6 11.5C6 11.8336 6.02971 12.1603 6.08661 12.4775C5.90131 12.4922 5.70596 12.5 5.5 12.5C1.5 12.5 1.5 9.575 1.5 9.575V9.5C1.5 8.67157 2.17157 8 3 8ZM16 11.5C16 13.9853 13.9853 16 11.5 16C9.01472 16 7 13.9853 7 11.5C7 9.01472 9.01472 7 11.5 7C13.9853 7 16 9.01472 16 11.5ZM13.8536 9.64645C13.6583 9.45118 13.3417 9.45118 13.1464 9.64645L10.5 12.2929L9.85355 11.6464C9.65829 11.4512 9.34171 11.4512 9.14645 11.6464C8.95118 11.8417 8.95118 12.1583 9.14645 12.3536L10.1464 13.3536C10.3417 13.5488 10.6583 13.5488 10.8536 13.3536L13.8536 10.3536C14.0488 10.1583 14.0488 9.84171 13.8536 9.64645Z" fill="#212121"/>
</svg>

<svg xmlns="http://www.w3.org/2000/svg" width="16" height="16"><path d="M8 4.5a2.5 2.5 0 1 1-5 0 2.5 2.5 0 0 1 5 0ZM11.5 6a5.5 5.5 0 0 0-1.578.23 2 2 0 1 1 3.155 0A5.5 5.5 0 0 0 11.5 6ZM3 8h4.257A5.478 5.478 0 0 0 6 11.5c0 .334.03.66.087.977a7.292 7.292 0 0 1-.587.023c-4 0-4-2.925-4-2.925V9.5A1.5 1.5 0 0 1 3 8Zm13 3.5a4.5 4.5 0 1 1-9 0 4.5 4.5 0 0 1 9 0Zm-2.146-1.854a.5.5 0 0 0-.708 0L10.5 12.293l-.646-.647a.5.5 0 0 0-.708.708l1 1a.5.5 0 0 0 .708 0l3-3a.5.5 0 0 0 0-.708Z"/></svg>
